X:1
T: Flett Fae Flotta
C: D. McLeod  (Orkney Collection)
R:Reel
Q: 232
K:A
M:4/4
L:1/8
fe|:ce cB c2 Ac|ef ec e2 ce|fe fa f2 ec|fe cA B2 fe|
ce cB c2 Ac|ef ec a2 AB|c2 ae c2 Bc|1A2 AB A2 fe:|2A2 AB A2 Ac|
|:e2 Ac a2 Ac|ef ec e2 Ac|a2 Ac e2 ce|fe cA B2 fe|
ce cB c2 Ac|ef ec a2 AB|c2 ae c2 Bc|1A2 AB A2 Ac:|2A2 AB A2||
